X: 121004
T: The ROSE TREE
P: Same figure.
%R: march, reel
B: James Kerr "Merry Melodies" v.1 p.21 s.0 #4
Z: 2017 John Chambers <jc:trillian.mit.edu>
M: 2/4
L: 1/8
K: D
(f/e/) |\
dBAF | A2 (AB) |\
d2 ed/e/ | fee (f/e/) |\
dBAF | A2 (AB) |\
d2 ed/e/ | fdd :|
|: ue |\
vf>ve fg | ua2 gf |\
ebba | bee (f/e/) |\
dBAF | A2 (AB) |\
d2 ed/e/ | fdd :|

%%sep 1 1 500
%%sep 1 1 500

